X:39
T:mesur pur
R:miniwet
S:gwrach y rhipyn
O:traddodiadol gymreig
Z:crm; lesl(abc editing)
M:3/4
L:1/8
Q:1/4=100
K:Am
E2|{B}AGA Bcd|e2e dce|d2d cBd|cdc BAE|
A2A Bcd|e2e dce|dcB ABc|A3 zEA|
{B}AGA Bcd|ege d^cA|gag ed^c|aba ged|
AEA Bcd|e2e dce|bag edB|A3 zcd||
ecA ecA|dBG dBG|ecA ecA|dBG dBG|
AcB AGE|AcB AGE|AEA Bcd|ege d^cA|bag edB|A3 zcd||
ecA ecA|dBG dBG|Ace4|dBG4|AcB AGE|AcB AGE|
AEA Bcd|e2e dce|dcB ABc|A3||
